X:309
T:Tren Gelir
T:The Train Comes
Z:Jack Campin, http://www.campin.me.uk/
F:Jack Campin's Nine-Note Tunebook
% last edit 03-02-2013
N:Turkish children's song
S:Eftal Dodur, Meshur Oyun Havalari, book 2
M:2/4
L:1/16
Q:1/4=100
K:DDor
G2G2 D2D2|G2G2 D4|F4   GAGA|FGEF D4:|
F2FE D2D2|F2FG E4|FGFG E2F2|E2D2 D4:|
G2G2 D2D2|G2G2 D4|F4   GAGA|FGEF D4:|

